X:1
T:Title
%%score { 1 | ( 2 3 ) }
L:1/8
Q:1/4=84
M:6/8
K:G
V:1 treble nm="Grand Piano"
V:2 treble 
V:3 treble 
V:1
 d>cB BAB | [B,G]3 [B,D]2 D | GFG BAG | [FA]6 | d>ed [DB][CDA][B,DG] | [DG]2 [FA] [DGB]2 [G,D] | %6
w: J.~M.~Evans * * * * *||||||
 [G,CE][A,DF][B,DG] [CEA][DFB][CFA] | [B,G]3- [B,G]2 G | [Ec]>[Ec][Ec] [EGc][DGd][Ge] | %9
w: |||
 d3 B2 G/A/ | BAB [Bd][Ac][GB] | [FA]3- [FA]2 B/c/ | d>ed BAG |[M:7/8] [EGc]3 [Ge]3 [Ge] | %14
w: |||||
[M:3/4] [Gd][B,DG] [CDA][DGB] [CAc][CFA] |[M:5/8] [B,G]-[B,G]- [B,G]3 |[M:1/8] G | %17
w: |||
[M:3/4] [EGc]2 [EGc] [EGc]2 [CGc] | e2 d B2 G/A/ | B2 BB AG | [Fd]4- [Fd][GB]/c/ | %21
w: ||||
 [Bd]>[ce] [Bd][DGB] [CDA][B,DG] | [Ec]3 [Ge]2 [Ge] | [Gd][B,DG] [CDA][DGB] [DAc][CFA] | [B,G]6 |] %25
w: ||||
V:2
 [G,B,G]>[G,CG][G,DG] [G,D][G,C][K:bass][G,D] | [G,,G,]3 [G,,G,]2 [G,B,] | %2
 [G,B,D][A,CD][G,B,D] [G,D][F,D][E,^CE] | [D,D]6 | [G,B,G]>[G,CG][G,B,G][K:bass] G,,A,,B,, | %5
 C,2 D, G,2 B,, | C,C,B,, A,,D,D, | G,,3- G,,2 G, | [C,G,]>[C,G,][C,G,] C,C,[C,C] | %9
 [G,B,G]3 [G,D]2 [B,E]/[A,CF]/ | [G,DG][G,DF][G,DG][K:bass] [G,D][F,D][G,D] | z3 z2 [G,D] | %12
 [G,B,G]>[G,CG][G,B,G] [G,DG][G,CD][K:bass][G,B,D] |[M:7/8] C,3 [C,C]3 [C,C] | %14
[M:3/4] [D,B,]D, D,D, D,D, |[M:5/8] G,,-G,,- G,,3 |[M:1/8] G, |[M:3/4] C,2 C, C,2 E, | %18
 [G,CG]2 [G,B,G] [G,DG]2 [G,D]/-[G,CD]/ | [G,DG]2 [G,DG][K:bass][G,D] [F,A,][E,A,E] | %20
 [D,A,]4- [D,A,] z/[K:treble] A/ | G,>G, G,G,[K:bass] G,G, | [C,G,]3 [C,C]2 [C,C] | %23
 [D,B,]D, D,D, D,D, | G,,6 |] %25
V:3
 x5[K:bass] x | x6 | x6 | x6 | x3[K:bass] x3 | x6 | x6 | x6 | x6 | x6 | x3[K:bass] x3 | %11
 [D,D]3- [D,D]2 z/ A,/ | x5[K:bass] x |[M:7/8] x7 |[M:3/4] x6 |[M:5/8] x5 |[M:1/8] x |[M:3/4] x6 | %18
 z2 z2 z .B, | x3[K:bass] x3 | z2 z2 z G,[K:treble] | x4[K:bass] x2 | x6 | x6 | x6 |] %25

